X:1
T:50 Etudes
T:Etude in G minor
T:Carl Czerny (1791-1857) 
C:Carl Czerny
%%score { ( 1 4 ) | ( 2 3 ) }
L:1/8
Q:1/4=160
M:4/4
K:Bb
V:1 treble nm="Piano" snm="Pno."
V:4 treble 
V:2 bass 
V:3 bass 
V:1
"^Allegro agitato"!ff!"_50." G,/"_Il basso sempre tenuto e ben marcato"B,/D/G/[Q:1/2=92] B/G/d/B/ g/d/B/G/ D/B,/G,/G/ | %1
 G,/D/"^Op.740, No.50"^F/A/ d/A/^f/d/ a/f/d/A/ F/D/A,/A/ | %2
 =B,/D/=F/=B/ d/B/f/d/ =b/g/d/B/ G/D/B,/B/ | C/E/G/c/ e/c/g/e/ c'/g/e/c/ G/E/C/c/ | %4
 ^C/=E/G/^c/ E/G/c/=e/ c/A/E/A/ c/e/a/^c'/ | d'/a/^f/d/ =c'/a/f/c/ c'/a/f/c/ b/g/G/g/ | %6
 b/e/B/e/ a/e/A/e/ a/=e/A/e/ g/e/A/e/ | ^f/a/f/d/ d'/c'/a/f/ d/c/A/^F/ D/C/A,/^F,/ | %8
 G,/B,/D/G/ B/G/d/B/ g/d/B/G/ D/B,/G,/G/ | A,/D/^F/A/ d/A/^f/d/ a/f/d/A/ F/D/A,/A/ | %10
 =B,/D/=F/=B/ d/B/f/d/ =b/g/d/B/ G/D/B,/B/ | C/E/G/c/ e/c/g/e/ c'/g/e/c/ G/E/C/c/ | %12
 ^C/=E/G/^c/ =e/g/^c'/=e'/ c'/a/e/a/!8va(! ^c'/=e'/a'/^c''/ | %13
 d''/a'/^f'/d'/ =c''/a'/f'/a/ b'/g'/e'/b/ c''/a'/e'/c'/ | %14
 b'/g'/d''/b'/ g'/d'/b/!8va)!G/ d/d'/c'/a/ ^f/d/c/A/ | G/B/d/g/ =f/F/_E/C/ F,/C/E/F/ c/F/f/e/ | %16
 d/F/B/d/!8va(! f/b/d'/f'/ b'/f''/d''/b'/ f'/d'/b/!8va)!F/ | %17
 c/F/A/c/!8va(! f/a/c'/f'/ a'/f''/c''/a'/ f'/c'/a/!8va)!F/ | %18
 c/F/_A/c/!8va(! f/_a/c'/f'/ _a'/f''/c''/a'/ f'/c'/a/!8va)!F/ | %19
 =B/d/B/G/ _a/d/B/_A/ g/e/c/G/ f/d/B/G/ | %20
 e/G/c/e/!8va(! g/c'/e'/g'/ c''/g''/e''/c''/ g'/e'/c'/!8va)!G/ | %21
 d/G/=B/d/!8va(! g/=b/d'/g'/ =b'/g''/d''/b'/ g'/d'/b/!8va)!G/ | %22
 d/G/_B/d/!8va(! g/_b/d'/g'/ _b'/g''/d''/b'/ g'/d'/b/!8va)!G/ | %23
 ^c/=e/c/A/ b/e/c/B/ a/f/d/A/ g/e/c/A/ | f/A/d/f/ (a/f/d/A/ =e/A/^c/e/ g/e/c/A/ | %25
 !wedge!f/)A/d/f/ (a/f/d/A/ =e/A/^c/e/ g/e/c/A/ | %26
 !wedge!f/)d/a/f/ !^!d'/a/f/d/ !^!B/d/g/b/ !^!g/d/B/G/ | %27
 !^!F/A/d/f/ a/f/d/A/ !^!=E/A/^c/=e/ a/e/c/A/ | f/A/d/f/ a/d'/f'/a'/ =e'/^c'/g'/e'/ c'/a/g/=e/ | %29
 f/A/d/f/!8va(! a/d'/f'/a'/ =e'/^c'/g'/e'/ c'/a/g/=e/ | %30
 f/d/f/a/ d'/f'/a'/d''/ b'/g'/d'/b/ g/b/d'/g'/ | f'/d'/a/f/ a/d'/f'/a'/ =e'/^c'/a/=e/ a/c'/e'/a'/ | %32
 d'/d''/a'/!8va)!f/ d'/a/f/d/ d'/=c'/^f/d/ c/^F/D/c/ | %33
 =B/G/D/G/ B/d/=f/=b/!8va(! d'/f'/=b'/f'/ d''/b'/g'/f'/ | %34
 _e'/c''/g'/!8va)!e/ c'/g/e/c/ c'/_b/=e/c/ B/=E/C/B/ | %35
 A/F/C/F/ A/c/_e/a/!8va(! c'/e'/a'/e'/ c''/a'/f'/e'/ | %36
 d'/!mp!f'/b'/d''/ f''/d''/b'/f'/ =e'/g'/b'/=e''/ _e''/c''/a'/_e'/ | %37
 =d'/f'/b'/d''/ _d''/g'/=e'/_d'/ c'/f'/c''/a'/ f'/c'/f'/_e'/ | %38
 d'/!mp!f'/b'/d''/ f''/d''/b'/f'/ =e'/g'/b'/=e''/ _e''/c''/a'/_e'/ | %39
 d'/f'/b'/d''/ _d''/g'/=e'/_d'/ c'/f'/c''/a'/ f'/c'/f'/_e'/ | %40
!ff! =d'/d''/b'/!8va)!f/ d'/b/f/d/ ^c'/g/=e/c'/ =c'/a/_e/c'/ | %41
 =b/g/d/b/ _b/g/d/b/ _a/e/c/a/ g/=e/B/g/ | ^f/d/A/d/!8va(! f/a/d'/^f'/ a'/d'/c''/a'/ f'/d'/c'/a/ | %43
 b/d/g/b/ d'/g'/b'/g'/ =e'/^c'/b/!8va)!G/ =e/^c/B/G/ | ^F/D/A,/D/ F/A/d/^f/ a/d/c'/a/ f/d/c/A/ | %45
 B/D/G/B/ d/g/b/g/ =e/^c/B/G/ =E/^C/B,/G,/ | ^F,/A,/D/^F/ D/c/A/D/ B/G/D/B,/ G,/B,/A,/G,/ | %47
 ^F,/A,/D/^F/ D/c/A/D/ B/G/D/B,/ G,/B,/A,/G,/ | x2 D/^F/A/d/ c/A/D/A/ c/d/a/c'/ | %49
 b/g/d'/b/ g/d/B/G/ ^F/A/c/A/ F/D/C/A,/ |!ff! G,/B,/D/G/ B/G/d/B/ g/d/B/G/ D/B,/G,/G/ | %51
 G,/D/^F/A/ d/A/^f/d/ a/f/d/A/ F/D/A,/A/ | =B,/D/=F/=B/ d/B/f/d/ =b/g/d/B/ G/D/B,/B/ | %53
 C/E/G/c/ e/c/g/e/ c'/g/e/c/ G/E/C/c/ | ^C/=E/G/^c/ E/G/c/=e/ c/A/E/A/ c/e/a/^c'/ | %55
 d'/a/^f/d/ =c'/a/f/c/ b/g/e/B/ c'/a/e/c/ | b/g/d/g/!8va(! b/d'/g'/d'/ b'/g'/d''/b'/ g'/d'/b/g/ | %57
 ^f/a/c'/d'/ ^f'/a'/c''/a'/ f'/d'/c'/!8va)!A/ ^f/d/c/A/ | %58
 G/=B/d/g/ =b/d'/^f'/g'/ f'/a/c'/f'/ =f'/b/d'/f'/ | %59
 =e'/g/c'/e'/ _e'/g/c'/e'/ d'/^f/a/d'/ c'/f/a/c'/ | _b/d/g/b/ !^!d'/b/g/d/ e/c/a/e/ !^!c'/a/e/c/ | %61
 d/B/g/d/ !^!b/g/d/B/ c/A/^f/c/ !^!a/f/c/A/ | G/=B/d/g/ =b/d'/^f'/g'/ f'/a/c'/f'/ =f'/b/d'/f'/ | %63
 =e'/g/c'/e'/ _e'/g/c'/e'/ d'/^f/a/d'/ c'/f/a/c'/ | _b/d/g/b/ d'/b/g/d/ e/c/_a/e/ c'/a/e/c/ | %65
 d/B/g/d/ b/g/d/B/ c/A/^f/c/ a/f/c/A/ | %66
!ff! B/"_impetuoso"d/g/b/!8va(! d'/d''/b'/g'/!8va)! d'/b/g/d/ B/G/D/B,/ | %67
 A,/D/^F/A/ C/A/F/C/ A,/F/C/A,/ ^F,/C/A,/F,/ | B,/D/G/B/ d/d'/b/g/ d/B/G/D/[K:bass] B,/G,/D,/B,,/ | %69
 A,,/D,/^F,/A,/ C,/A,/F,/C,/ A,,/F,/C,/A,,/ ^F,,/C,/A,,/F,,/ | %70
[Q:1/4=170] B,,/D,/G,/B,/ ^C/D/B,/G,/ ^F,/!wedge!A,/D/^F/[K:treble] ^G/A/^F/=C/ | %71
 B,/D/G/B/ ^c/d/B/G/ ^F/A/d/^f/ ^g/a/f/=c/ | %72
 B/d/g/b/ ^c'/d'/b/g/ ^f/a/d'/^f'/!8va(! ^g'/a'/^f'/=c'/ | %73
 b/d'/g'/b'/ a'/^f'/d'/d''/ b'/g'/d'/d''/ a'/f'/d'/d''/ | %74
!fff! b'/g'/d''/b'/ g'/d'/b/g/ b/d'/g'/!8va)!d/ b/g/d/B/ | G/B/d/g/ d/B/G/D/ B,/D/G/D/ x2 | %76
 x2 [G,CEG] z [GBdg] z [gc'e'g'] z | [bd'g'b']4 [GBdg]7/2 [G,B,DG]/ |!fff! !fermata![G,B,DG]8 |] %79
V:2
 [G,,,G,,]4 [B,,,B,,]7/2 [G,,,G,,]/ | [D,,D,]8 | [_A,,_A,]4 [G,,G,]7/2 [F,,F,]/ | %3
 [E,,E,]7/2 [D,,D,]/ [C,,C,]4 | [B,,,_B,,]4 [A,,,A,,]7/2 [G,,,G,,]/ | %5
 [^F,,,^F,,]2 [D,,,D,,]2 [E,,,_E,,]2 [E,,E,]2 | [C,,C,]2 [C,C]2 [^C,,^C,]2 [^C,^C]2 | %7
 [D,,D,]2 [D,^F,A,=C]4 z2 | [G,,,G,,]4 [B,,,B,,]7/2 [G,,,G,,]/ | [D,,D,]4- [D,,D,]7/2 [D,,D,]/ | %10
 [_A,,_A,]7/2 [A,,A,]/ [G,,G,]7/2 [F,,F,]/ | [E,,E,]7/2 [D,,D,]/ [C,,C,]7/2 [_B,,,_B,,]/ | %12
 [A,,,A,,]2 [B,,B,]2 [A,,A,]2 [G,,G,]2 | [^F,,^F,]2 [D,,D,]2 [_E,,_E,]2 [C,,C,]2 | %14
 !>![D,,G,,B,,D,]4 !>![D,,^F,,A,,D,]4 | [G,,,G,,]2 [A,,,C,,=F,,A,,]6 | %16
 [B,,,B,,]7/2[K:treble] [B,B]/ [Dd]7/2[K:bass] [B,,,B,,]/ | %17
 [A,,,A,,]7/2[K:treble] [A,A]/ [Cc]7/2[K:bass] [A,,,A,,]/ | %18
 [_A,,,_A,,]7/2[K:treble] [_A,_A]/ [Cc]7/2[K:bass] [A,,,A,,]/ | %19
 [G,,,G,,]2 [F,F]2 [E,E]2 [G,,,G,,]2 | [C,,C,]7/2[K:treble] [Cc]/ [Ee]7/2[K:bass] [C,,C,]/ | %21
 [=B,,,=B,,]7/2[K:treble] [=B,=B]/ [Dd]7/2[K:bass] [B,,,B,,]/ | %22
 [_B,,,_B,,]7/2[K:treble] [B,_B]/ [Dd]7/2[K:bass] [B,,,B,,]/ | %23
 [A,,,A,,]2 [G,G]2 [F,F]2 [A,,,A,,]2 | [D,,D,]2 ([F,D]2 [A,=E]2) [A,,,A,,]2 | %25
 [D,,D,]2 ([F,D]2 [A,=E]2) [A,,,A,,]2 | [D,,D,]2 [F,,,F,,]2 [G,,,G,,]2 [B,,,B,,]2 | %27
 [A,,,A,,]2 [A,DF]2 [A,,,A,,]2 [A,^C=E]2 | [D,,D,]2 ([F,D]2 [A,=E]2) [A,,,A,,]2 | %29
 [D,,D,]2 ([F,D]2 [A,=E]2) [A,,,A,,]2 | [D,,D,]2 [F,A,DF]2 [G,,,G,,]2[K:treble] [B,DGB]2 | %31
[K:bass] [A,,,A,,]2[K:treble] [A,DFA]2[K:bass] [A,,,A,,]2 [=E,G,A,^C]2 | %32
 [D,,,D,,]7/2 [F,,,F,,]/ [_A,,,_A,,]7/2 [A,,_A,]/ | [G,,G,]2 [_A,_A]2 [G,G]7/2 [G,,,G,,]/ | %34
 [C,,,C,,]7/2 [E,,,E,,]/ [_G,,,_G,,]7/2 [G,,_G,]/ | [F,,F,]2 [_G,_G]2 [F,F]7/2 [F,,,F,,]/ | %36
 [B,,,B,,]2[K:treble]"_legato" ([dfb]2 [_dgb]2 [cfa]2 | %37
 [Bfb]2 [B=eg]2 [Acf]2)[K:bass]!f! [F,,,F,,]2 | [B,,,B,,]2[K:treble] ([dfb]2 [_dgb]2 [cfa]2 | %39
 [Bfb]2 [B=eg]2 [Acf]2)[K:bass]!f! [F,,,F,,]2 | %40
 [B,,,B,,]2[K:treble] [B,B]2 [A,A]2[K:bass] [^F,^F]2 | [G,G]2 [G,,,G,,]2 [C,,C,]2 [^C,,^C,]2 | %42
 [D,,D,]7/2[K:treble] [Dd]/ [^F^f]7/2[K:bass] [^F,,^F,]/ | %43
 [G,,G,]7/2[K:treble] [G,G]/ [B,B]7/2[K:bass] [^C,,^C,]/ | %44
 [D,,D,]7/2 [D,D]/ [^F,^F]7/2 [^F,,,^F,,]/ | [G,,,G,,]7/2 [G,,G,]/ [B,,B,]7/2 [^C,,,^C,,]/ | %46
 [D,,,D,,]2 [^F,,^F,]2 [G,,G,]2 [^C,,,^C,,]2 | [D,,,D,,]2 [^F,,^F,]2 [G,,G,]2 [^C,,,^C,,]2 | %48
 ^F,/D,/F,/A,/ z2 [^F,,,^F,,]4 | [G,,,G,,]4 [D,,,D,,]4 | [G,,,G,,]4 [B,,,B,,]7/2 [G,,,G,,]/ | %51
 [D,,-D,]4 [D,,D,]7/2 [D,,D,]/ | [_A,,_A,]4 [G,,G,]7/2 [F,,F,]/ | [E,,E,]7/2 [D,,D,]/ [C,,C,]4 | %54
 [B,,,_B,,]4 [A,,,A,,]7/2 [G,,,G,,]/ | [^F,,,^F,,]2 [D,,,D,,]2 [_E,,,_E,,]2 [C,,,C,,]2 | %56
 z4!ped! [D,G,B,D]4!ped-up! |!ped! [D,,,D,,]8!ped-up! |!ped! [G,,,G,,]8-!ped-up! | [G,,,G,,]8 | %60
 x2 [B,,,B,,]2!ped! z2 x2!ped-up! |!ped! z2 x2!ped! [D,,D,]4!ped-up! | [G,,,G,,]8- | [G,,,G,,]8 | %64
 x2 [B,,,B,,]2!ped! z2 x2!ped-up! |!ped! z2 x2!ped! [D,,D,]4!ped-up! | %66
 [G,,,G,,]4 [B,,,B,,]7/2 [G,,,G,,]/ | [D,,D,]2[K:treble] (!>![Ee]4 [Dd]2) | %68
[K:bass] [G,,,G,,]4 [B,,,B,,]7/2 [G,,,G,,]/ | [D,,,D,,]2 ([E,E]4 [D,D]2) | %70
 G,,,/G,,/D,,/G,,/ B,,,/B,,/G,,/B,,/ D,,/D,/A,,/D,/ ^F,,/^F,/D,/F,/ | %71
 G,,/G,/D,/G,/ B,,/B,/G,/B,/ D,/D/A,/D/ ^F,/^F/D/F/ | %72
[K:treble] G,/G/D/G/ B,/B/G/B/ D/d/A/d/ ^F/d/A/d/ | G/d/B/d/ D/d/A/d/ G/d/B/d/ D/d/A/d/ | %74
[K:treble]!ped! [GB] z g/d/B/G/ B/d/g/d/ B/G/D/B,/!ped-up! | x6 B,/G,/D,/B,,/ | %76
 G,, z [C,,E,,G,,C,] z [G,,,B,,,D,,G,,] z [C,,E,,G,,C,] z | %77
 [G,,,D,,G,,]4 [G,,B,,D,G,]7/2 [G,,,G,,]/ | !fermata![G,,,G,,]8 |] %79
V:3
 x8 | x8 | x8 | x8 | x8 | x8 | x8 | x8 | x8 | x8 | x8 | x8 | x8 | x8 | x8 | x8 | %16
 x7/2[K:treble] x4[K:bass] x/ | x7/2[K:treble] x4[K:bass] x/ | x7/2[K:treble] x4[K:bass] x/ | x8 | %20
 x7/2[K:treble] x4[K:bass] x/ | x7/2[K:treble] x4[K:bass] x/ | x7/2[K:treble] x4[K:bass] x/ | x8 | %24
 x8 | x8 | x8 | x8 | x8 | x8 | x6[K:treble] x2 |[K:bass] x2[K:treble] x2[K:bass] x4 | x8 | x8 | %34
 x8 | x8 | x2[K:treble] x6 | x6[K:bass] x2 | x2[K:treble] x6 | x6[K:bass] x2 | %40
 x2[K:treble] x4[K:bass] x2 | x8 | x7/2[K:treble] x4[K:bass] x/ | x7/2[K:treble] x4[K:bass] x/ | %44
 x8 | x8 | x8 | x8 | [D,,,D,,]4 x4 | x8 | x8 | x8 | x8 | x8 | x8 | x8 | [D,,,D,,]8 | %57
 z4 [D,^F,A,CD]4 | x8 | x8 | x4 [C,,C,]4 | [D,,D,]4 z2 x2 | x8 | x8 | x4 [C,,C,]4 | %65
 [D,,D,]4 z2 x2 | x8 | x2[K:treble] x6 |[K:bass] x8 | x8 | x8 | x8 |[K:treble] x8 | x8 | %74
[K:treble] x8 | G,/B,/D/G/ D/B,/G,/D,/ B,,/D,/G,/D,/ B,,/G,,/D,,/B,,,/ | G,,, z x6 | x8 | x8 |] %79
V:4
 x8 | x8 | x8 | x8 | x8 | x8 | x8 | x8 | x8 | x8 | x8 | x8 | x6!8va(! x2 | x8 | x7/2!8va)! x9/2 | %15
 x8 | x2!8va(! x11/2!8va)! x/ | x2!8va(! x11/2!8va)! x/ | x2!8va(! x11/2!8va)! x/ | x8 | %20
 x2!8va(! x11/2!8va)! x/ | x2!8va(! x11/2!8va)! x/ | x2!8va(! x11/2!8va)! x/ | x8 | x8 | x8 | x8 | %27
 x8 | x8 | x2!8va(! x6 | x8 | x8 | x3/2!8va)! x13/2 | x4!8va(! x4 | x3/2!8va)! x13/2 | %35
 x4!8va(! x4 | x8 | x8 | x8 | x8 | x3/2!8va)! x13/2 | x8 | x2!8va(! x6 | x11/2!8va)! x5/2 | x8 | %45
 x8 | x8 | x8 | x8 | x8 | x8 | x8 | x8 | x8 | x8 | x8 | x2!8va(! x6 | x11/2!8va)! x5/2 | %58
 z2 z3/2 ([=Bdg]/ [Ac^f]2 [Bd=f]2 | [c-=e]2 [Gc_e]2 [^FAd]2- [DFAd]2 | [G_B]2) x4 [CEA]2 | %61
 G2 [B,DG]2 x2 [A,CD^F]2 | z2 z3/2 [=Bdg]/ [Ac^f]2 [Bd=f]2 | [c-=e]2 [Gc_e]2 [^FAd]2- [DFAd]2 | %64
 [GB]2 x4 [CE_A]2 | G2 [B,DG]2 x2 [A,CD^F]2 | x2!8va(! x2!8va)! x4 | x8 | x6[K:bass] x2 | x8 | %70
 x6[K:treble] x2 | x8 | x6!8va(! x2 | x8 | x11/2!8va)! x5/2 | x8 | x8 | x8 | x8 |] %79

